dist/surtificate--icon.3718c819.svg

<svg width="66" height="67" viewBox="0 0 66 67" fill="none" xmlns="http://www.w3.org/2000/svg">
<ellipse cx="33" cy="33.4092" rx="33" ry="33.4092" fill="#F3F4F8"/>
<path d="M47.4655 19H18.0782C17.4837 19 17 19.4854 17 20.0819V23.8901C17 24.4896 17.9241 24.4896 17.9241 23.8901V20.0819C17.9241 19.9968 17.9932 19.9274 18.0782 19.9274H47.4655C47.5505 19.9274 47.6195 19.9968 47.6195 20.0819V42.694C47.6195 42.7792 47.5505 42.8485 47.4655 42.8485H41.5442V41.8837H46.1916C46.4468 41.8837 46.6536 41.6761 46.6536 41.42V36.5643C46.6536 35.9647 45.7295 35.9647 45.7295 36.5643V40.9563H41.5442V38.8989C41.5592 38.9002 41.5744 38.9015 41.5886 38.9028C41.9722 38.9366 42.4493 38.9787 42.7798 38.6464C43.11 38.3145 43.0682 37.8352 43.0346 37.4501C42.9985 37.0368 43.0374 36.9237 43.3539 36.6596C44.169 35.9795 44.1841 35.2513 43.3539 34.5588C43.0374 34.2945 42.9986 34.1815 43.0346 33.7681C43.1251 32.7309 42.6423 32.2226 41.5886 32.3155C41.1774 32.3517 41.0658 32.3125 40.8036 31.9948C40.1269 31.175 39.4008 31.1598 38.7116 31.9948C38.4494 32.3125 38.3379 32.3518 37.9266 32.3155C36.8923 32.2243 36.3883 32.7115 36.4806 33.7681C36.5165 34.1816 36.4778 34.2945 36.1612 34.5588C35.3462 35.2388 35.3311 35.9671 36.1612 36.6596C36.4778 36.9238 36.5165 37.0369 36.4806 37.4502C36.3835 38.5612 36.9123 38.9907 37.9709 38.899V40.9564H19.8142V21.8196H45.7295V34.0912C45.7295 34.6908 46.6536 34.6908 46.6536 34.0912V21.3559C46.6536 21.0998 46.4468 20.8922 46.1916 20.8922H19.3522C19.0969 20.8922 18.8901 21.0998 18.8901 21.3559V41.42C18.8901 41.6761 19.0969 41.8837 19.3522 41.8837H37.9709V42.8485H18.0782C17.9932 42.8485 17.9241 42.7792 17.9241 42.694V26.2394C17.9241 25.6399 17 25.6399 17 26.2394V42.694C17 43.2905 17.4837 43.7759 18.0782 43.7759H37.9709V45.8749C38.0367 46.256 38.2557 46.3961 38.6278 46.2953L39.7575 45.768L40.8872 46.2953C41.1668 46.4257 41.5442 46.2196 41.5442 45.8749V43.7759H47.4655C48.06 43.7759 48.5437 43.2905 48.5437 42.694V20.0819C48.5437 19.4853 48.06 19 47.4655 19V19ZM37.8456 37.9789C37.3831 38.0198 37.3606 37.9949 37.4011 37.531C37.4632 36.8189 37.3 36.4035 36.7519 35.9463C36.377 35.6334 36.3771 35.5846 36.7519 35.2717C37.3 34.8146 37.4632 34.3991 37.4011 33.6872C37.3606 33.2231 37.3831 33.1985 37.8456 33.2392C38.5552 33.3019 38.9687 33.1369 39.4232 32.5862C39.7337 32.2101 39.7812 32.2101 40.0918 32.5862C40.5464 33.1369 40.9598 33.3017 41.6694 33.2392C42.132 33.1983 42.1544 33.2232 42.1139 33.6871C42.0518 34.3991 42.215 34.8145 42.763 35.2717C43.1379 35.5846 43.1381 35.6335 42.763 35.9463C42.215 36.4035 42.0517 36.8188 42.1139 37.5308C42.1545 37.9948 42.1319 38.0197 41.6694 37.9789C41.3792 37.9533 41.05 37.9242 40.7601 38.045C40.4796 38.162 40.2824 38.4008 40.0918 38.6318C40.0019 38.7406 39.838 38.9393 39.7574 38.9748C39.6769 38.9393 39.5129 38.7406 39.4231 38.6318C39.2324 38.4009 39.0353 38.162 38.7547 38.045C38.4557 37.9535 38.1526 37.9315 37.8456 37.9789ZM39.9524 44.8362C39.8288 44.7785 39.6862 44.7785 39.5627 44.8362L38.895 45.1479V39.4383C39.1143 39.6803 39.3848 39.9049 39.7575 39.9049C40.1303 39.9049 40.4008 39.6803 40.6201 39.4384V45.1479L39.9524 44.8362Z" fill="#2C4CBC"/>
<path d="M22.9921 25.7006H38.9208C39.5182 25.7006 39.5182 24.7732 38.9208 24.7732H22.9921C22.3946 24.7732 22.3946 25.7006 22.9921 25.7006V25.7006Z" fill="#2C4CBC"/>
<path d="M43.0137 28.0577C43.0137 27.8016 42.8069 27.594 42.5517 27.594H22.9925C22.3951 27.594 22.3951 28.5214 22.9925 28.5214H42.5517C42.8069 28.5214 43.0137 28.3138 43.0137 28.0577V28.0577Z" fill="#2C4CBC"/>
<path d="M34.5672 30.8778C34.5672 30.6217 34.3604 30.4141 34.1051 30.4141H22.9925C22.3951 30.4141 22.3951 31.3414 22.9925 31.3414H34.1051C34.3603 31.3414 34.5672 31.1338 34.5672 30.8778Z" fill="#2C4CBC"/>
<path d="M28.4993 37.3411C28.2474 37.3415 27.9954 37.3418 27.7435 37.342C27.2588 37.3424 26.992 37.2127 26.893 36.697C26.8026 36.2262 26.1259 36.2861 26.0019 36.697C25.947 36.8789 25.6697 37.3998 25.4276 37.3572C25.2992 37.3346 25.2432 37.136 25.1957 37.0331C25.1034 36.8329 25.0361 36.6206 24.9785 36.4079C24.7353 35.5094 24.6867 34.5712 24.5345 33.6557C24.4463 33.1248 23.6399 33.2749 23.6269 33.7789C23.5855 35.3846 23.3239 36.9683 22.7543 38.4733C22.5429 39.0318 23.4359 39.2732 23.6454 38.7198C23.865 38.1396 24.0394 37.5453 24.1747 36.9423C24.2473 37.162 24.3338 37.3776 24.4395 37.5872C24.7093 38.1224 25.2597 38.439 25.8485 38.2009C26.0587 38.116 26.2504 37.9675 26.4136 37.7868C26.8508 38.2927 27.5012 38.2698 28.108 38.269C29.0227 38.2678 29.9374 38.2657 30.8521 38.2631C31.4467 38.2615 31.4478 37.3341 30.8521 37.3358C30.0679 37.338 29.2836 37.3398 28.4993 37.3411V37.3411Z" fill="#2C4CBC"/>
<path d="M39.7574 37.4201C40.7526 37.4201 41.5622 36.6076 41.5622 35.609C41.5622 34.6103 40.7526 33.7979 39.7574 33.7979C38.7623 33.7979 37.9526 34.6104 37.9526 35.609C37.9526 36.6076 38.7622 37.4201 39.7574 37.4201ZM39.7574 34.7252C40.243 34.7252 40.6381 35.1217 40.6381 35.609C40.6381 36.0962 40.243 36.4927 39.7574 36.4927C39.2718 36.4927 38.8768 36.0963 38.8768 35.609C38.8768 35.1217 39.2718 34.7252 39.7574 34.7252Z" fill="#2C4CBC"/>
</svg>

<svg xmlns="http://www.w3.org/2000/svg" width="66" height="67" fill="none" xmlns:v="https://vecta.io/nano"><ellipse cx="33" cy="33.409" rx="33" ry="33.409" fill="#f3f4f8"/><path d="M47.466 19H18.078A1.08 1.08 0 0 0 17 20.082v3.808c0 .599.924.599.924 0v-3.808c0-.085.069-.155.154-.155h29.387c.085 0 .154.069.154.155v22.612c0 .085-.069.154-.154.154h-5.921v-.965h4.647c.255 0 .462-.208.462-.464v-4.856c0-.6-.924-.6-.924 0v4.392h-4.185v-2.057l.044.004c.384.034.861.076 1.191-.256s.288-.811.255-1.196c-.036-.413.003-.526.319-.791.815-.68.83-1.408 0-2.101-.317-.264-.355-.377-.319-.791.091-1.037-.392-1.545-1.446-1.453-.411.036-.523-.003-.785-.321-.677-.82-1.403-.835-2.092 0-.262.318-.374.357-.785.321-1.034-.091-1.538.396-1.446 1.453.036.414-.003.526-.319.791-.815.68-.83 1.408 0 2.101.317.264.355.377.319.791-.097 1.111.432 1.54 1.49 1.449v2.057H19.814V21.82H45.73v12.272c0 .6.924.6.924 0V21.356c0-.256-.207-.464-.462-.464h-26.84c-.255 0-.462.208-.462.464V41.42c0 .256.207.464.462.464h18.619v.965H18.078c-.085 0-.154-.069-.154-.154V26.239c0-.599-.924-.599-.924 0v16.455a1.08 1.08 0 0 0 1.078 1.082h19.893v2.099c.066.381.285.521.657.42l1.13-.527 1.13.527c.28.13.657-.076.657-.42v-2.099h5.921a1.08 1.08 0 0 0 1.078-1.082V20.082A1.08 1.08 0 0 0 47.466 19h0zm-9.62 18.979c-.462.041-.485.016-.444-.448.062-.712-.101-1.127-.649-1.585-.375-.313-.375-.362 0-.675.548-.457.711-.873.649-1.585-.041-.464-.018-.489.444-.448.71.063 1.123-.102 1.578-.653.31-.376.358-.376.669 0 .455.551.868.715 1.578.653.463-.041.485-.016.444.448-.062.712.101 1.127.649 1.585.375.313.375.362 0 .675-.548.457-.711.873-.649 1.584.041.464.018.489-.444.448-.29-.026-.619-.055-.909.066-.281.117-.478.356-.668.587-.09.109-.254.308-.334.343-.08-.035-.244-.234-.334-.343-.191-.231-.388-.47-.668-.587a2 2 0 0 0-.909-.066zm2.107 6.857a.46.46 0 0 0-.39 0l-.668.312v-5.71c.219.242.49.467.862.467s.643-.225.863-.466v5.709l-.668-.312zM22.992 25.701h15.929c.597 0 .597-.927 0-.927H22.992c-.598 0-.598.927 0 .927h0zm20.022 2.357c0-.256-.207-.464-.462-.464H22.993c-.597 0-.597.927 0 .927h19.559c.255 0 .462-.208.462-.464h0zm-8.447 2.82c0-.256-.207-.464-.462-.464H22.993c-.597 0-.597.927 0 .927h11.113c.255 0 .462-.208.462-.464zm-6.068 6.463l-.756.001c-.485 0-.751-.129-.851-.645-.09-.471-.767-.411-.891 0-.055.182-.332.703-.574.66-.128-.023-.184-.221-.232-.324-.092-.2-.16-.412-.217-.625-.243-.898-.292-1.837-.444-2.752-.088-.531-.895-.381-.908.123-.041 1.606-.303 3.189-.873 4.694-.211.558.682.8.891.246a13.15 13.15 0 0 0 .529-1.777 4.71 4.71 0 0 0 .265.645c.27.535.82.852 1.409.614.21-.085.402-.233.565-.414.437.506 1.088.483 1.694.482l2.744-.006c.595-.002.596-.929 0-.927l-2.353.005h0zm11.258.079a1.811 1.811 0 0 0 0-3.622 1.811 1.811 0 0 0 0 3.622zm0-2.695c.486 0 .881.396.881.884s-.395.884-.881.884-.881-.396-.881-.884.395-.884.881-.884z" fill="#2c4cbc"/></svg>
